!!!!SEGMENT: Wil1004e-Missa_Christus_resurgens-Agnus
!!!id: Wil1004e
!!!AGN: Mass; Agnus
!!!voices: 2-5
!!!OPR: Missa Christus resurgens
!!!COM: Adrian Willaert
!!!OTL: Agnus
**kern	**kern	**kern	**kern	**kern
*part5	*part4	*part3	*part2	*part1
*staff5	*staff4	*staff3	*staff2	*staff1
*I"Bassus	*I"Tenor II	*I"Tenor I	*I"Altus	*I"Superius
*I'B	*I'T. II	*I'T. I	*I'A	*I'S
*clefF4	*clefGv2	*clefGv2	*clefG2	*clefG2
*k[b-]	*k[b-]	*k[b-]	*k[b-]	*k[b-]
*F:	*F:	*F:	*F:	*F:
*M2/1	*M2/1	*M2/1	*M2/1	*M2/1
*met(C|)	*met(C|)	*met(C|)	*met(C|)	*met(C|)
=1	=1	=1	=1	=1
!!section: Agnus Dei I
!!!OMD: Agnus Dei I
1r	0r	1F	0r	0r
1C	.	[1c	.	.
=2	=2	=2	=2	=2
1.F	0r	1c]	0r	0r
.	.	1d	.	.
2G	.	.	.	.
=3	=3	=3	=3	=3
1A	0r	2.c	0r	0r
.	.	4B-y	.	.
1F	.	4A	.	.
.	.	4F	.	.
.	.	[2f	.	.
=4	=4	=4	=4	=4
1B-y	0r	2f]	1r	1f
.	.	4e	.	.
.	.	4d	.	.
2A	.	2e	1c	[1cc
[2F	.	2f	.	.
=5	=5	=5	=5	=5
4F]	0r	1c	1.f	1cc]
4G	.	.	.	.
4A	.	.	.	.
4F	.	.	.	.
1B-y	.	1r	.	1dd
.	.	.	2g	.
=6	=6	=6	=6	=6
1F	0r	0r	1a	2.cc
.	.	.	.	4b-y
1r	.	.	2.f	4a
.	.	.	.	4g
.	.	.	.	[2a
.	.	.	4e	.
=7	=7	=7	=7	=7
1F	0r	0r	4d	2a]
.	.	.	4c	.
.	.	.	1f	4g
.	.	.	.	4f
[1c	.	.	.	2g
.	.	.	4e	[2cc
.	.	.	4d	.
=8	=8	=8	=8	=8
1c]	0r	0r	1e	4cc]
.	.	.	.	4b-y
.	.	.	.	2.a
1d	.	.	2.f	.
.	.	.	.	4g
.	.	.	.	[2f
.	.	.	4g	.
=9	=9	=9	=9	=9
0c	0r	1r	2a	2f]
.	.	.	2g	2e
.	.	1F	2a	2f
.	.	.	[2f	[2a
=10	=10	=10	=10	=10
1C	0r	0c	2f]	2a]
.	.	.	2e	2g
[1F	.	.	2f	2a
.	.	.	[2a	[2cc
=11	=11	=11	=11	=11
2F]	0r	1d	2a]	2cc]
2G	.	.	4g	2bnXi
.	.	.	4f	.
1A	.	2.c	1e	1cc
.	.	4B-y	.	.
=12	=12	=12	=12	=12
2.F	0r	4A	1r	1r
.	.	4G	.	.
.	.	1A	.	.
4E	.	.	.	.
1D	.	.	2r	[1a
.	.	4G	[2d	.
.	.	4F	.	.
=13	=13	=13	=13	=13
2r	0r	2.f	2d]	1a]
2A	.	.	2c	.
.	.	4e	.	.
2B-y	.	2d	2d	1f
2A	.	[2c	[2f	.
=14	=14	=14	=14	=14
1G	0r	2c]	2f]	1g
.	.	2B-y	2e	.
1F	.	1c	1f	[1a
=15	=15	=15	=15	=15
1D	0r	1d	1f	1a]
1A	.	1c	2.e	1cc
.	.	.	4f	.
=16	=16	=16	=16	=16
2.G	0r	0r	1g	2.b-y
4A	.	.	.	4cc
1B-y	.	.	2f	1dd
.	.	.	[2b-y	.
=17	=17	=17	=17	=17
1F	0r	0c	2b-]	2cc
.	.	.	2a	1ff
1r	.	.	2.g	.
.	.	.	.	2ee
.	.	.	8fL	.
.	.	.	8eJ	.
=18	=18	=18	=18	=18
0r	0r	2.B-y	2f	2.dd
.	.	.	2.g	.
.	.	4c	.	8ccL
.	.	.	.	8b-yJ
.	.	1d	.	2a
.	.	.	4f	.
.	.	.	[2f	2b-y
=19	=19	=19	=19	=19
1r	0r	0c	2f]	1g
.	.	.	2e	.
1F	.	.	4f	1a
.	.	.	4g	.
.	.	.	4a	.
.	.	.	4f	.
=20	=20	=20	=20	=20
2E	0r	2r	2g	0r
2F	.	2c	1f	.
1G	.	2.B-y	.	.
.	.	.	2e	.
.	.	4c	.	.
=21	=21	=21	=21	=21
2.F	0r	2d	1f	0r
.	.	1c	.	.
4G	.	.	.	.
4A	.	.	1r	.
4F	.	.	.	.
[2G	.	2B-y	.	.
=22	=22	=22	=22	=22
4G]	0r	2.A	0r	1r
4F	.	.	.	.
1F	.	.	.	.
.	.	8GL	.	.
.	.	8FJ	.	.
.	.	1G	.	2r
2E	.	.	.	2cc
=23	=23	=23	=23	=23
2.F	0r	2F	0r	1cc
.	.	1c	.	.
4E	.	.	.	.
2F	.	.	.	2a
2D	.	[2B-y	.	2b-y
=24	=24	=24	=24	=24
2E	0r	2B-]	2r	1cc
2F	.	2A	2f	.
2BB-y	.	1B-y	1f	2.dd
2B-y	.	.	.	.
.	.	.	.	4cc
=25	=25	=25	=25	=25
1B-y	0r	0r	2d	4b-y
.	.	.	.	4a
.	.	.	2d	2.dd
1G	.	.	2.g	.
.	.	.	.	4cc
.	.	.	.	4b-y
.	.	.	4f	4a
=26	=26	=26	=26	=26
0r	0r	0r	4e	2g
.	.	.	4d	.
.	.	.	4c	2.cc
.	.	.	4B-y	.
.	.	.	4A	.
.	.	.	4G	4b-y
.	.	.	[2g	4b-y
.	.	.	.	8aL
.	.	.	.	8gJ
=27	=27	=27	=27	=27
0r	0r	0r	2g]	2a
.	.	.	2f	1dd
.	.	.	1e	.
.	.	.	.	2cc#i
=28	=28	=28	=28	=28
1r	0r	2r	0d	[0dd
.	.	2f	.	.
1B-y	.	1f	.	.
=29	=29	=29	=29	=29
1B-y	0r	2d	2r	0dd]
.	.	2d	2b-y	.
2G	.	2.g	1b-y	.
2G	.	.	.	.
.	.	4f	.	.
=30	=30	=30	=30	=30
2.c	0r	4e	1g	0r
.	.	4d	.	.
.	.	2e	.	.
4B-y	.	.	.	.
4A	.	2c	1r	.
4G	.	.	.	.
4F	.	[2f	.	.
4E	.	.	.	.
=31	=31	=31	=31	=31
4D	0r	4f]	1r	0r
4C	.	4e	.	.
1c	.	4e	.	.
.	.	8dL	.	.
.	.	8cJ	.	.
.	.	1d	2r	.
2BnXi	.	.	2g	.
=32	=32	=32	=32	=32
1c	0r	0c	2g	1r
.	.	.	2e	.
1A	.	.	2.a	2r
.	.	.	.	2ee
.	.	.	4g	.
=33	=33	=33	=33	=33
2r	0r	0r	2f	2dd
2A	.	.	2e	2cc
2F	.	.	4d	2.ff
.	.	.	4c	.
[2B-y	.	.	4d	.
.	.	.	4e	4ee
=34	=34	=34	=34	=34
2B-]	0r	2r	2f	2dd
2c	.	2g	2e	1cc
1G	.	1g	1d	.
.	.	.	.	2bnXi
=35	=35	=35	=35	=35
2r	0r	1e	0c	0cc
2A	.	.	.	.
1A	.	2r	.	.
.	.	2e	.	.
=36	=36	=36	=36	=36
0F	0r	2d	2r	1r
.	.	2c	2a	.
.	.	2.f	1a	2r
.	.	.	.	2cc
.	.	4e	.	.
=37	=37	=37	=37	=37
2r	0r	2d	1f	2b-y
2F	.	2c	.	2a
2D	.	4B-y	2f	2.dd
.	.	4A	.	.
[2G	.	4B-y	[2g	.
.	.	4c	.	4cc
=38	=38	=38	=38	=38
4G]	0r	2d	4g]	2b-y
4D	.	.	4f	.
2F	.	2c	2f	1a
1G	.	1B-y	1d	.
.	.	.	.	2g
=39	=39	=39	=39	=39
1D	0r	2.A	2d	1a
.	.	.	2f	.
.	.	4B-y	.	.
[1A	.	1c	2f	2r
.	.	.	2e	2cc
=40	=40	=40	=40	=40
1A]	0r	1F	2.a	2cc
.	.	.	.	2a
.	.	.	4g	.
2.B-y	.	1r	4f	2.dd
.	.	.	4e	.
.	.	.	[2d	.
4c	.	.	.	4cc
=41	=41	=41	=41	=41
1d	0r	0r	4d]	2b-y
.	.	.	4e	.
.	.	.	4f	2a
.	.	.	4d	.
1G	.	.	2e	4g
.	.	.	.	4f
.	.	.	[2d	4g
.	.	.	.	4a
=42	=42	=42	=42	=42
2r	0r	1r	4d]	2b-y
.	.	.	4e	.
1F	.	.	2f	2a
.	.	2r	2c	1g
2E	.	2c	[2g	.
=43	=43	=43	=43	=43
1A	0r	2c	4g]	2r
.	.	.	4e	.
.	.	2A	2f	2cc
2G	.	2.d	2B-y	2b-y
2D	.	.	2f	2a
.	.	4c	.	.
=44	=44	=44	=44	=44
2E-X	0r	2B-y	2e-X	2g
2F	.	2A	2.c	2f
4C	.	4G	.	4e
4D	.	4F	4B-y	4d
4EnXi	.	4G	2c	[2g
4F	.	4A	.	.
=45	=45	=45	=45	=45
4G	0r	2B-y	2G	2g]
4E	.	.	.	.
2F	.	2A	2.c	1f
1C	.	1G	.	.
.	.	.	4B-y	.
.	.	.	2G	2e
=46	=46	=46	=46	=46
[0Fl	0r	[0Fl	2.A	[0fl
.	.	.	4B-y	.
.	.	.	2c	.
.	.	.	2d	.
=47	=47	=47	=47	=47
0F]	0r	0F]	0cl	0f]
=48||	=48||	=48||	=48||	=48||
*M2/1	*M2/1	*M2/1	*M2/1	*M2/1
*met(C|)	*met(C|)	*met(C|)	*met(C|)	*met(C|)
!!section: Agnus Dei II
!!!OMD: Agnus Dei II
0r	0r	0r	0r	1.cc
.	.	.	.	4b-y
.	.	.	.	4a
=49	=49	=49	=49	=49
0r	0r	0r	1r	2b-y
.	.	.	.	2cc
.	.	.	[1f	1dd
=50	=50	=50	=50	=50
0r	0r	0r	2f]	0cc
.	.	.	4e	.
.	.	.	4d	.
.	.	.	2e	.
.	.	.	2f	.
=51	=51	=51	=51	=51
0r	0r	0r	2g	1r
.	.	.	2.f	.
.	.	.	.	[1cc
.	.	.	4e	.
.	.	.	4f	.
.	.	.	4g	.
=52	=52	=52	=52	=52
0r	0r	0r	1a	2cc]
.	.	.	.	4b-y
.	.	.	.	4a
.	.	.	2g	2b-y
.	.	.	[2f	2a
=53	=53	=53	=53	=53
0r	0r	0r	2f]	2dd
.	.	.	2e	2.cc
.	.	.	2.f	.
.	.	.	.	4b-y
.	.	.	.	4cc
.	.	.	8eL	4dd
.	.	.	8dJ	.
=54	=54	=54	=54	=54
0r	0r	0r	2c	1ee-i
.	.	.	2g	.
.	.	.	4f	2dd
.	.	.	4e	.
.	.	.	4d	[2cc
.	.	.	4c	.
=55	=55	=55	=55	=55
0r	0r	0r	2.d	2cc]
.	.	.	.	2bnXi
.	.	.	8cL	.
.	.	.	8B-yJ	.
.	.	.	4A	[1cc
.	.	.	4B-y	.
.	.	.	4c	.
.	.	.	4d	.
=56	=56	=56	=56	=56
0r	0r	0r	2e	2cc]
.	.	.	2f	4b-y
.	.	.	.	4a
.	.	.	2e	2g
.	.	.	4c	[2cc
.	.	.	4d	.
=57	=57	=57	=57	=57
0r	0r	0r	4e	2cc]
.	.	.	4f	.
.	.	.	2.g	2b-y
.	.	.	.	2.a
.	.	.	4f	.
.	.	.	[2f	.
.	.	.	.	8gL
.	.	.	.	8fJ
=58	=58	=58	=58	=58
0r	0r	0r	2f]	1g
.	.	.	2e	.
.	.	.	1f	2r
.	.	.	.	2cc
=59	=59	=59	=59	=59
0r	0r	0r	2r	1cc
.	.	.	1c	.
.	.	.	.	1a
.	.	.	2d	.
=60	=60	=60	=60	=60
0r	0r	0r	2e	1cc
.	.	.	2f	.
.	.	.	2d	2.dd
.	.	.	[2g	.
.	.	.	.	4cc
=61	=61	=61	=61	=61
0r	0r	0r	4g]	4b-y
.	.	.	8fL	4a
.	.	.	8eJ	.
.	.	.	2f	2.dd
.	.	.	2.g	.
.	.	.	.	4cc
.	.	.	.	4b-y
.	.	.	4a	4a
=62	=62	=62	=62	=62
0r	0r	0r	2b-y	2g
.	.	.	2a	2.cc
.	.	.	2f	.
.	.	.	.	4dd
.	.	.	[2g	2ee
=63	=63	=63	=63	=63
0r	0r	0r	4g]	2dd
.	.	.	4f	.
.	.	.	4e	4cc
.	.	.	4d	4b-y
.	.	.	2c	4a
.	.	.	.	4g
.	.	.	2e	[2cc
=64	=64	=64	=64	=64
0r	0r	0r	1d	2cc]
.	.	.	.	2bnXi
.	.	.	2.c	[1cc
.	.	.	4d	.
=65	=65	=65	=65	=65
0r	0r	0r	2e	1cc]
.	.	.	2f	.
.	.	.	1d	2r
.	.	.	.	[2f
=66	=66	=66	=66	=66
0r	0r	0r	2r	2f]
.	.	.	1c	2g
.	.	.	.	2a
.	.	.	2d	2b-y
=67	=67	=67	=67	=67
0r	0r	0r	2.e	2g
.	.	.	.	2.cc
.	.	.	4f	.
.	.	.	2d	.
.	.	.	.	8b-yL
.	.	.	.	8aJ
.	.	.	2g	2b-y
=68	=68	=68	=68	=68
0r	0r	0r	2a	2.cc
.	.	.	2f	.
.	.	.	.	4dd
.	.	.	2.g	2ee-i
.	.	.	.	2dd
.	.	.	4f	.
=69	=69	=69	=69	=69
0r	0r	0r	4g	2b-y
.	.	.	4f	.
.	.	.	4e	2.cc
.	.	.	4d	.
.	.	.	2c	.
.	.	.	.	4b-y
.	.	.	[2d	4a
.	.	.	.	4g
=70	=70	=70	=70	=70
0r	0r	0r	4d]	2f
.	.	.	4c	.
.	.	.	1f	2a
.	.	.	.	1g
.	.	.	2e	.
=71	=71	=71	=71	=71
0r	0r	0r	0f	2r
.	.	.	.	2cc
.	.	.	.	2dd
.	.	.	.	2cc
=72	=72	=72	=72	=72
0r	0r	0r	2r	4a
.	.	.	.	4b-y
.	.	.	2c	4cc
.	.	.	.	4a
.	.	.	2d	2b-y
.	.	.	2c	2cc
=73	=73	=73	=73	=73
0r	0r	0r	4A	4cc
.	.	.	4B-y	4b-y
.	.	.	4c	1a
.	.	.	4A	.
.	.	.	1B-y	.
.	.	.	.	2g
=74	=74	=74	=74	=74
0r	0r	0r	2A	0a
.	.	.	2c	.
.	.	.	2d	.
.	.	.	2c	.
=75	=75	=75	=75	=75
0r	0r	0r	4A	1.cc
.	.	.	4B-y	.
.	.	.	4c	.
.	.	.	4d	.
.	.	.	4e	.
.	.	.	4f	.
.	.	.	[2d	2b-y
=76	=76	=76	=76	=76
0r	0r	0r	4d]	2.a
.	.	.	4c	.
.	.	.	2.f	.
.	.	.	.	8gL
.	.	.	.	8fJ
.	.	.	.	2a
.	.	.	8eL	.
.	.	.	8dJ	.
.	.	.	2e	2g
=77	=77	=77	=77	=77
0r	0r	0r	4A	2.cc
.	.	.	4B-y	.
.	.	.	4c	.
.	.	.	4d	4b-y
.	.	.	4e	4cc
.	.	.	4f	4a
.	.	.	[2g	[2b-y
=78	=78	=78	=78	=78
0r	0r	0r	4g]	4b-]
.	.	.	4f	4a
.	.	.	1f	4g
.	.	.	.	4f
.	.	.	.	1g
.	.	.	2e	.
=79	=79	=79	=79	=79
0r	0r	0r	0fl	0fl
=80||	=80||	=80||	=80||	=80||
*M2/1	*M2/1	*M2/1	*M2/1	*M2/1
*met(C|)	*met(C|)	*met(C|)	*met(C|)	*met(C|)
!!section: Agnus Dei III
!!!OMD: Agnus Dei III
1.B-y	1r	0r	0d	0f
.	[1f	.	.	.
2A	.	.	.	.
=81	=81	=81	=81	=81
2.G	2f]	0r	0B-y	1g
.	4e	.	.	.
4F	4d	.	.	.
1G	1e	.	.	[1b-y
=82	=82	=82	=82	=82
0F	1f	1.f	0c	2b-]
.	.	.	.	4a
.	.	.	.	4g
.	[1F	.	.	1a
.	.	2e	.	.
=83	=83	=83	=83	=83
0BB-y	2F]	2.d	1d	1b-y
.	1B-y	.	.	.
.	.	4c	.	.
.	.	1d	[1f	1f
.	2A	.	.	.
=84	=84	=84	=84	=84
0C	2.G	[0c	2f]	1.cc
.	.	.	4e	.
.	4F	.	4d	.
.	1G	.	1e	.
.	.	.	.	2b-y
=85	=85	=85	=85	=85
0F	1F	0c]	1f	2.a
.	.	.	.	4g
.	[1f	.	[1c	1a
=86	=86	=86	=86	=86
0C	2f]	1r	2c]	0g
.	4e	.	4B-y	.
.	4d	.	4A	.
.	1e	[1c	2G	.
.	.	.	2c	.
=87	=87	=87	=87	=87
1.F	1f	2c]	2A	1a
.	.	2B-y	1f	.
.	1c	2A	.	[1cc
2E	.	2G	2g	.
=88	=88	=88	=88	=88
1F	1.d	1A	1f	2cc]
.	.	.	.	4b-y
.	.	.	.	4a
1G	.	1G	1d	1b-y
.	[2G	.	.	.
=89	=89	=89	=89	=89
2E	2G]	0r	2r	2cc
2F	1c	.	2c	1a
1D	.	.	2d	.
.	2B-y	.	[2f	4g
.	.	.	.	4f
=90	=90	=90	=90	=90
1C	2A	2r	2f]	1cc
.	4G	1c	4e	.
.	4F	.	4d	.
1r	1G	.	2e	2r
.	.	2B-y	2d	2g
=91	=91	=91	=91	=91
1.F	2.A	2A	2c	2.cc
.	.	1c	2.f	.
.	4G	.	.	4b-y
.	2A	.	.	2a
.	.	.	4e	.
2BB-y	2B-y	2B-y	[2d	[2g
=92	=92	=92	=92	=92
1D	1F	2A	4d]	4g]
.	.	.	4c	4f
.	.	4G	4A	1f
.	.	4F	4B-y	.
1C	1r	1G	1c	.
.	.	.	.	2e
=93	=93	=93	=93	=93
2.c	1.f	1F	2.A	2f
.	.	.	.	1cc
4B-y	.	.	4B-y	.
2A	.	1r	2c	.
2G	2B-y	.	2d	2b-y
=94	=94	=94	=94	=94
1F	2c	2r	1A	2a
.	2d	1f	.	4g
.	.	.	.	4f
1C	1c	.	2r	1g
.	.	2e	2G	.
=95	=95	=95	=95	=95
2r	1F	1f	4A	2f
.	.	.	4B-y	.
2.c	.	.	4c	2a
.	.	.	4d	.
.	1r	1c	2e	2g
4B-y	.	.	.	.
4A	.	.	2f	[2cc
4G	.	.	.	.
=96	=96	=96	=96	=96
2A	0r	2r	2e	2cc]
1F	.	2c	1a	2.ff
.	.	2.f	.	.
.	.	.	.	4ee
[2B-y	.	.	2d	4dd
.	.	4e	.	4cc
=97	=97	=97	=97	=97
2B-]	1r	2d	1f	2b-y
2A	.	2c	.	1cc
1G	2r	1d	2.g	.
.	2G	.	.	2bnXi
.	.	.	4f	.
=98	=98	=98	=98	=98
2r	2.c	2c	2e	1cc
2.F	.	2A	2f	.
.	4B-y	.	.	.
.	4A	2r	2c	[1f
4E	4G	.	.	.
4D	2A	[2f	[2d	.
4C	.	.	.	.
=99	=99	=99	=99	=99
2D	2F	4f]	4d]	1f]
.	.	4e	4c	.
2BB-y	1B-y	1d	2d	.
1E-i	.	.	2G	1g
.	4A	2c	2g	.
.	4G	.	.	.
=100	=100	=100	=100	=100
1D	2.A	2d	2f	2r
.	.	1f	2.a	1dd
.	4B-y	.	.	.
1A	2c	.	.	.
.	.	.	4g	.
.	2A	2e	2a	2cc
=101	=101	=101	=101	=101
2r	2.B-y	2.d	2.f	2dd
2B-y	.	.	.	1ff
.	8AL	8cL	4g	.
.	8GJ	8B-yJ	.	.
2c	2F	1A	1a	.
2A	2c	.	.	2ee
=102	=102	=102	=102	=102
2B-y	2d	2r	0r	2dd
4A	2e	1c	.	4cc
4G	.	.	.	4b-y
2F	2.f	.	.	2a
2A	.	2c	.	[2cc
.	8eL	.	.	.
.	8fJ	.	.	.
=103	=103	=103	=103	=103
1G	2g	1d	2r	2cc]
.	2d	.	1g	2bnXi
1C	2e	2.c	.	2cc
.	2g	.	2e	2g
.	.	4B-y	.	.
=104	=104	=104	=104	=104
1F	2.f	4A	2f	2a
.	.	4G	.	.
.	.	2F	1a	2cc
.	4e	.	.	.
1G	1d	1B-y	.	2b-y
.	.	.	2g	[2dd
=105	=105	=105	=105	=105
2D	2r	1A	2.f	4dd]
.	.	.	.	4cc
1F	2c	.	.	4a
.	.	.	8eL	4b-y
.	.	.	8dJ	.
.	2A	1r	2c	2cc
2F	[2c	.	[2f	[2a
=106	=106	=106	=106	=106
1G	2c]	0r	2f]	2a]
.	2B-y	.	2e	2g
2.F	2d	.	2f	2a
.	[2c	.	[2a	2ff
4E	.	.	.	.
=107	=107	=107	=107	=107
1C	4c]	2r	2a]	4ee
.	4B-y	.	.	4dd
.	2G	1c	1g	4cc
.	.	.	.	4b-y
1r	1A	.	.	4a
.	.	.	.	4g
.	.	2c	2f#i	[2cc
=108	=108	=108	=108	=108
2r	2G	1d	1g	2cc]
2G	1g	.	.	2b-y
2.A	.	[1c	1r	1a
.	[2f	.	.	.
4B-y	.	.	.	.
=109	=109	=109	=109	=109
2c	2f]	1c]	1r	1g
2C	2e	.	.	.
2.D	1d	[1f	2r	1r
.	.	.	[2b-y	.
4E	.	.	.	.
=110	=110	=110	=110	=110
1F	1c	1f]	2b-]	2r
.	.	.	2a	2cc
1r	2.B-y	1d	2g	2dd
.	.	.	2f	[2ff
.	4A	.	.	.
=111	=111	=111	=111	=111
1C	4G	2c	1g	2ff]
.	4F	.	.	.
.	2G	2.c	.	2ee
1F	2A	.	1f	2dd
.	.	4B-y	.	.
.	[2c	4A	.	4cc
.	.	4G	.	4b-y
=112	=112	=112	=112	=112
1r	4c]	1A	2e	4a
.	4d	.	.	4g
.	4e	.	2c	1cc
.	4f	.	.	.
2r	2.g	1G	1d	.
2G	.	.	.	2b-y
.	4f	.	.	.
=113	=113	=113	=113	=113
2A	1e	0r	2c	2a
1c	.	.	2e	2g
.	2d	.	2f	1dd
2BnXi	2G	.	[2g	.
=114	=114	=114	=114	=114
2c	1A	2r	4g]	2cc
.	.	.	4c	.
2F	.	1c	2f	1a
1G	1B-y	.	2.d	.
.	.	2B-y	.	2g
.	.	.	4e	.
=115	=115	=115	=115	=115
2.F	1c	2.A	4f	2a
.	.	.	4g	.
.	.	.	1a	2.cc
4E	.	8GL	.	.
.	.	8FJ	.	.
2F	2.d	2A	.	.
.	.	.	.	8b-yL
.	.	.	.	8aJ
[2G	.	2G	2d	2b-y
.	8cL	.	.	.
.	8B-yJ	.	.	.
=116	=116	=116	=116	=116
2G]	4A	1c	2e	2.cc
.	4G	.	.	.
2F	2A	.	2.f	.
.	.	.	.	8b-yL
.	.	.	.	8aJ
2G	2B-y	2B-y	.	2g
.	.	.	4d	.
2C	2c	2A	2e	[2a
=117	=117	=117	=117	=117
1D	2A	1F	2f	4a]
.	.	.	.	4g
.	2B-y	.	2d	1f
1C	2.c	1G	2e	.
.	.	.	[2c	2e
.	4B-y	.	.	.
=118	=118	=118	=118	=118
2.F	2A	[0Fl	4c]	[0fl
.	.	.	4B-y	.
.	2c	.	4A	.
4E	.	.	4G	.
2D	1d	.	2A	.
2BB-y	.	.	2B-y	.
=119	=119	=119	=119	=119
0Fl	0cl	0F]	0Al	0f]
==	==	==	==	==
*-	*-	*-	*-	*-
!!!system-decoration: s1,s2,s3,s4,s5
!!!RDF**kern: i = editorial accidental
!!!RDF**kern: l = terminal long
!!!ENC: Maura Sugg
!!!END: 2026/4/4
!!!EED: Benjamin Ory
!!!EEV: 2026/04/22
!!!YEC: Copyright 2026 Irene Holzer, All Rights Reserved
!!!ONB: Translated from MusicXML on 2026/04/22
!!!verovio: header encoded
!!!header-left: Edited by Irene Holzer\n
!!!header-right:
!!!header-center: